X:1
T:Kentucky Winder
M:2/4
L:1/8
R:Reel
F:http://www.abbamoses.com/fiddledo/fiddlepage, transcribed by John Brady
S:John Salyer (Magoffin County, Ky.)
Z: Contributed 2016-03-15 02:16:51 by Jim Gaskins fiddleji@com.net
K:G
|:[DA]-[DB] [DB][DB]|AG EG|AG [G,G][G,G]|[G,2G2] Bd|
ed BG|AG EG|AG [G,G][G,G]|[G,2G2][G2B2]:|
[DA]-[DB] [DB][DB]|AG EG|AG [G,G][G,G]|[G,2G2] Bd|ed BG|AG EG|AG GG||
|:g3g|ed [G,2D2]-|[G,D]g2a|b2a2|g2 bg|ed BA|
Bd ef|e2 d2|ef gf|ed BA|Bd ef|e2d2|
[DA]B [DB]G|AG EG|1 AG [G,G][G,G]:|2 AG [G,G][G,G]|[G4B4||
